src/assets/filled/Stacks.svg

<svg width="24" height="24" viewBox="0 0 24 24"  xmlns="http://www.w3.org/2000/svg">
<path d="M12 2C6.48 2 2 6.48 2 12C2 17.52 6.48 22 12 22C17.52 22 22 17.52 22 12C22 6.48 17.52 2 12 2ZM16.5 14.25H13.45L15.44 17.07C15.68 17.41 15.6 17.88 15.26 18.11C15.13 18.2 14.98 18.25 14.83 18.25C14.59 18.25 14.36 18.14 14.22 17.93L11.92 14.67L9.62 17.93C9.47 18.14 9.24001 18.25 9.01001 18.25C8.86001 18.25 8.70999 18.21 8.57999 18.11C8.23999 17.87 8.15999 17.4 8.39999 17.07L10.39 14.25H7.51999C7.10999 14.25 6.76999 13.91 6.76999 13.5C6.76999 13.09 7.10999 12.75 7.51999 12.75H16.52C16.93 12.75 17.27 13.09 17.27 13.5C17.27 13.91 16.91 14.25 16.5 14.25ZM16.5 11.25H7.5C7.09 11.25 6.75 10.91 6.75 10.5C6.75 10.09 7.09 9.75 7.5 9.75H10.37L8.38 6.92999C8.14001 6.58999 8.22 6.12 8.56 5.89C8.9 5.65 9.37001 5.73001 9.60001 6.07001L11.9 9.33L14.2 6.07001C14.44 5.73001 14.91 5.65 15.24 5.89C15.58 6.13 15.66 6.59999 15.42 6.92999L13.43 9.75H16.48C16.89 9.75 17.23 10.09 17.23 10.5C17.23 10.91 16.91 11.25 16.5 11.25Z" />
</svg>

<?xml version="1.0" encoding="UTF-8"?>
<svg width="24" height="24" viewBox="0 0 24 24" xmlns="http://www.w3.org/2000/svg">
 <path d="m12 2c-5.52 0-10 4.48-10 10s4.48 10 10 10 10-4.48 10-10-4.48-10-10-10zm4.5 12.25h-3.05l1.99 2.82c0.24 0.34 0.16 0.81-0.18 1.04-0.13 0.09-0.28 0.14-0.43 0.14-0.24 0-0.47-0.11-0.61-0.32l-2.3-3.26-2.3 3.26c-0.15 0.21-0.37999 0.32-0.60999 0.32-0.15 0-0.30002-0.04-0.43002-0.14-0.34-0.24-0.42-0.71-0.18-1.04l1.99-2.82h-2.87c-0.41 0-0.75-0.34-0.75-0.75s0.34-0.75 0.75-0.75h9c0.41 0 0.75 0.34 0.75 0.75s-0.36 0.75-0.77 0.75zm0-3h-9c-0.41 0-0.75-0.34-0.75-0.75s0.34-0.75 0.75-0.75h2.87l-1.99-2.82c-0.23999-0.34-0.16-0.80999 0.18-1.04 0.34-0.24 0.81001-0.15999 1.04 0.18001l2.3 3.26 2.3-3.26c0.24-0.34 0.71-0.42001 1.04-0.18001 0.34 0.24 0.42 0.70999 0.18 1.04l-1.99 2.82h3.05c0.41 0 0.75 0.34 0.75 0.75s-0.32 0.75-0.73 0.75z"/>
</svg>
